components/Common/Svg/svgs/headlessCMSDevelopment.svg

<svg
  width="90"
  height="90"
  viewBox="0 0 90 90"
  fill="none"
  xmlns="http://www.w3.org/2000/svg"
>
  <circle
    opacity="0.5"
    cx="45"
    cy="45"
    r="45"
    fill="#FFE603"
  ></circle>
  <path
    d="M32.5 55H57.5C58.8807 55 60 53.8807 60 52.5V35C60 33.6193 58.8807 32.5 57.5 32.5H32.5C31.1193 32.5 30 33.6193 30 35L30 52.5C30 53.8807 31.1193 55 32.5 55Z"
    stroke="#161616"
    stroke-width="2"
    stroke-linecap="round"
    stroke-linejoin="round"
  ></path>
  <path
    d="M50 60H40"
    stroke="#161616"
    stroke-width="2"
    stroke-linecap="round"
    stroke-linejoin="round"
  ></path>
  <path
    d="M34.959 44.5752C34.959 46.5283 35.96 47.6416 37.7422 47.6416C38.5479 47.6416 39.207 47.417 39.6758 47.0117C40.0664 46.6846 40.3154 46.2549 40.3154 45.9033C40.3154 45.5762 40.0957 45.3613 39.7588 45.3613C39.5342 45.3613 39.3877 45.4492 39.1777 45.708C38.8262 46.2549 38.3818 46.5088 37.8154 46.5088C36.8242 46.5088 36.2822 45.8105 36.2822 44.5312V43.7744C36.2822 42.5439 36.834 41.8408 37.8154 41.8408C38.377 41.8408 38.7822 42.0947 39.1533 42.6514C39.3633 42.9102 39.5293 43.0029 39.7637 43.0029C40.0859 43.0029 40.3105 42.7881 40.3105 42.4561C40.3105 42.1582 40.1104 41.7578 39.7832 41.4355C39.3096 40.9668 38.5869 40.708 37.7422 40.708C35.9795 40.708 34.959 41.8311 34.959 43.7207V44.5752ZM42.0635 47.5488C42.4492 47.5488 42.6641 47.2998 42.6641 46.8506V43.0664H42.708L44.0605 46.3818C44.2412 46.8311 44.4414 46.9873 44.7441 46.9873C45.042 46.9873 45.2422 46.8408 45.4229 46.3818L46.7754 43.0664H46.8193V46.8506C46.8193 47.3096 47.0195 47.5488 47.4004 47.5488C47.7861 47.5488 48.001 47.2998 48.001 46.8506V41.6309C48.001 41.0889 47.7227 40.7764 47.2393 40.7764C46.8047 40.7764 46.5605 40.9668 46.3311 41.5723L44.7686 45.4541H44.7197L43.1523 41.5771C42.9229 40.9766 42.6738 40.7764 42.249 40.7764C41.7754 40.7764 41.4775 41.0986 41.4775 41.6309V46.8506C41.4775 47.3096 41.6777 47.5488 42.0635 47.5488ZM49.1045 46.1279C49.1045 46.4062 49.2705 46.7041 49.5781 46.9873C50.0176 47.4023 50.7842 47.6416 51.6484 47.6416C53.2402 47.6416 54.251 46.8359 54.251 45.5664C54.251 44.585 53.6748 43.9941 52.4541 43.7158L51.4531 43.4766C50.833 43.335 50.5303 43.042 50.5303 42.627C50.5303 42.1094 50.9746 41.7773 51.668 41.7773C52.2441 41.7773 52.6934 42.0264 52.9912 42.4707C53.1475 42.666 53.3232 42.7539 53.5283 42.7539C53.8457 42.7539 54.0605 42.5439 54.0605 42.2363C54.0605 41.9287 53.8994 41.6162 53.5967 41.3428C53.1572 40.9375 52.4443 40.708 51.6484 40.708C50.1641 40.708 49.1973 41.5039 49.1973 42.7295C49.1973 43.6963 49.7686 44.3066 50.916 44.5703L51.9121 44.8145C52.6348 44.9854 52.9473 45.2637 52.9473 45.7129C52.9473 46.2549 52.5029 46.5674 51.7217 46.5674C51.1406 46.5674 50.6426 46.3428 50.2666 45.9082C50.0322 45.6543 49.8516 45.5615 49.6318 45.5615C49.334 45.5615 49.1045 45.7959 49.1045 46.1279Z"
    fill="#161616"
  ></path>
</svg>

<svg width="90" height="90" viewBox="0 0 90 90" fill="none" xmlns="http://www.w3.org/2000/svg"><circle opacity=".5" cx="45" cy="45" r="45" fill="#FFE603"/><path d="M32.5 55h25a2.5 2.5 0 0 0 2.5-2.5V35a2.5 2.5 0 0 0-2.5-2.5h-25A2.5 2.5 0 0 0 30 35v17.5a2.5 2.5 0 0 0 2.5 2.5ZM50 60H40" stroke="#161616" stroke-width="2" stroke-linecap="round" stroke-linejoin="round"/><path d="M34.959 44.575c0 1.953 1.001 3.067 2.783 3.067.806 0 1.465-.225 1.934-.63.39-.327.64-.757.64-1.109 0-.327-.22-.542-.557-.542-.225 0-.371.088-.581.347-.352.547-.796.8-1.363.8-.99 0-1.533-.698-1.533-1.977v-.757c0-1.23.552-1.933 1.533-1.933.562 0 .967.254 1.338.81.21.26.376.352.61.352.323 0 .547-.215.547-.547 0-.298-.2-.698-.527-1.02-.473-.47-1.196-.728-2.04-.728-1.764 0-2.784 1.123-2.784 3.013v.854Zm7.104 2.974c.386 0 .601-.25.601-.698v-3.785h.044l1.352 3.316c.181.45.381.605.684.605.298 0 .498-.146.679-.605l1.352-3.316h.044v3.785c0 .459.2.698.581.698.386 0 .601-.25.601-.698v-5.22c0-.542-.278-.855-.762-.855-.434 0-.678.19-.908.796l-1.562 3.882h-.05l-1.567-3.877c-.23-.6-.478-.8-.903-.8-.474 0-.772.322-.772.854v5.22c0 .459.2.698.587.698Zm7.041-1.421c0 .278.166.576.474.86.44.414 1.206.654 2.07.654 1.592 0 2.603-.806 2.603-2.076 0-.981-.576-1.572-1.797-1.85l-1-.24c-.621-.141-.924-.434-.924-.849 0-.518.445-.85 1.138-.85.576 0 1.025.25 1.323.694.157.195.332.283.537.283.318 0 .532-.21.532-.518 0-.307-.16-.62-.463-.893-.44-.406-1.153-.635-1.949-.635-1.484 0-2.45.796-2.45 2.022 0 .966.57 1.577 1.718 1.84l.996.245c.723.17 1.035.449 1.035.898 0 .542-.444.854-1.225.854a1.86 1.86 0 0 1-1.455-.659c-.235-.254-.415-.346-.635-.346-.298 0-.527.234-.527.566Z" fill="#161616"/></svg>
